app/assets/images/payment_icons/american_express.svg

<svg width="38" height="24" viewBox="0 0 38 24" fill="none" xmlns="http://www.w3.org/2000/svg">
<g clip-path="url(#clip0_17_7)">
<path opacity="0.07" d="M35 0H3C1.3 0 0 1.3 0 3V21C0 22.7 1.4 24 3 24H35C36.7 24 38 22.7 38 21V3C38 1.3 36.6 0 35 0Z" fill="black"/>
<path d="M35 1C36.1 1 37 1.9 37 3V21C37 22.1 36.1 23 35 23H3C1.9 23 1 22.1 1 21V3C1 1.9 1.9 1 3 1H35Z" fill="#006FCF"/>
<path fill-rule="evenodd" clip-rule="evenodd" d="M22.0117 19.9358V11.5146L37 11.5281V13.8542L35.2676 15.7056L37 17.5738V19.9494H34.2341L32.7641 18.3273L31.3047 19.9555L22.0117 19.9358Z" fill="#FFFFFE"/>
<path fill-rule="evenodd" clip-rule="evenodd" d="M23.0127 19.0125V12.4413H28.5846V13.9551H24.8168V14.9827H28.4947V16.4713H24.8168V17.4806H28.5846V19.0125H23.0127Z" fill="#016FD0"/>
<path fill-rule="evenodd" clip-rule="evenodd" d="M28.5567 19.0125L31.6398 15.7232L28.5566 12.4415H30.943L32.8269 14.5242L34.7162 12.4415H37V12.4932L33.9826 15.7232L37 18.9193V19.0125H34.6933L32.7759 16.909L30.8782 19.0125H28.5567Z" fill="#016FD0"/>
<path fill-rule="evenodd" clip-rule="evenodd" d="M22.7107 4.03999H26.3236L27.5926 6.92148V4.03999H32.0531L32.8222 6.19879L33.594 4.03999H37V12.4612H19L22.7107 4.03999Z" fill="#FFFFFE"/>
<path fill-rule="evenodd" clip-rule="evenodd" d="M23.3947 4.95496L20.479 11.5207H22.4788L23.0289 10.2058H26.0095L26.5592 11.5207H28.6087L25.7051 4.95496H23.3947ZM23.6453 8.7324L24.5197 6.64228L25.3935 8.7324H23.6453Z" fill="#016FD0"/>
<path fill-rule="evenodd" clip-rule="evenodd" d="M28.5814 11.5194V4.95383L31.3924 4.96349L32.8388 8.99984L34.2946 4.95383H37V11.5194L35.2591 11.5348V7.02488L33.6158 11.5194H32.0268L30.3494 7.00948V11.5194H28.5814Z" fill="#016FD0"/>
</g>
<defs>
<clipPath id="clip0_17_7">
<rect width="38" height="24" fill="white"/>
</clipPath>
</defs>
</svg>

<svg xmlns="http://www.w3.org/2000/svg" fill="none" aria-labelledby="pi-american_express" viewBox="0 0 38 24" width="38" height="24"><title id="pi-american_express">American Express</title><g clip-path="url(#clip0_17_7)"><path fill="#000" d="M35 0H3C1.3 0 0 1.3 0 3v18c0 1.7 1.4 3 3 3h32c1.7 0 3-1.3 3-3V3c0-1.7-1.4-3-3-3Z" opacity=".07"/><path fill="#006FCF" d="M35 1c1.1 0 2 .9 2 2v18c0 1.1-.9 2-2 2H3c-1.1 0-2-.9-2-2V3c0-1.1.9-2 2-2h32Z"/><path fill="#FFFFFF" d="M22.012 19.936v-8.421L37 11.528v2.326l-1.732 1.852L37 17.573v2.375h-2.766l-1.47-1.622-1.46 1.628-9.292-.02Z"/><path fill="#006FCF" d="M23.013 19.012v-6.57h5.572v1.513h-3.768v1.028h3.678v1.488h-3.678v1.01h3.768v1.531h-5.572Z"/><path fill="#006FCF" d="m28.557 19.012 3.083-3.289-3.083-3.282h2.386l1.884 2.083 1.89-2.082H37v.051l-3.017 3.23L37 18.92v.093h-2.307l-1.917-2.103-1.898 2.104h-2.321Z"/><path fill="#FFFFFF" d="M22.71 4.04h3.614l1.269 2.881V4.04h4.46l.77 2.159.771-2.159H37v8.421H19l3.71-8.421Z"/><path fill="#006FCF" d="m23.395 4.955-2.916 6.566h2l.55-1.315h2.98l.55 1.315h2.05l-2.904-6.566h-2.31Zm.25 3.777.875-2.09.873 2.09h-1.748Z"/><path fill="#006FCF" d="M28.581 11.52V4.953l2.811.01L32.84 9l1.456-4.046H37v6.565l-1.74.016v-4.51l-1.644 4.494h-1.59L30.35 7.01v4.51h-1.768Z"/></g><defs><clipPath id="clip0_17_7"><path fill="#fff" d="M0 0h38v24H0z"/></clipPath></defs></svg>
